X: 1
T: A la Mode de France
M: C|
L: 1/8
%Q: 120
H: The title was derived from a ballad probably written in 1642-3 while the Queen was in
H: Holland raising money and troops to support Charles I. Called "The French Report", it
H: is set in the conventionalized "foreigner's accent".
K: DMix
"C"|: a | "D"af "A7"ga | "D"f>e da | af "A7"ga | "D"f3 \
"D":: f | "A7"eA de | "D"f>e df |1 "A7"eA de | "D"f3 :|2 "A7"af ga | "D"f3 |]
